Newaita-dark/.LP/128/media-record.svg

<?xml version="1.0" encoding="UTF-8"?>
<svg xmlns="http://www.w3.org/2000/svg" xmlns:xlink="http://www.w3.org/1999/xlink" width="128pt" height="128pt" viewBox="0 0 128 128" version="1.1">
<g id="surface1">
<path style=" stroke:none;fill-rule:nonzero;fill:rgb(25.882354%,25.882354%,25.882354%);fill-opacity:1;" d="M 63.507812 122.71875 C 31.253906 122.71875 5.292969 96.757812 5.292969 64.507812 C 5.292969 32.253906 31.253906 6.292969 63.507812 6.292969 C 95.757812 6.292969 121.71875 32.253906 121.71875 64.507812 C 121.71875 96.757812 95.757812 122.71875 63.507812 122.71875 Z M 63.507812 112.136719 C 89.894531 112.136719 111.136719 90.894531 111.136719 64.507812 C 111.136719 38.121094 89.894531 16.875 63.507812 16.875 C 37.121094 16.875 15.875 38.121094 15.875 64.507812 C 15.875 90.894531 37.121094 112.136719 63.507812 112.136719 Z M 63.507812 112.136719 "/>
<path style=" stroke:none;fill-rule:nonzero;fill:rgb(93.725491%,32.549021%,31.37255%);fill-opacity:1;" d="M 63.507812 38.046875 C 78.121094 38.046875 89.96875 49.890625 89.96875 64.507812 C 89.96875 79.121094 78.121094 90.96875 63.507812 90.96875 C 48.890625 90.96875 37.046875 79.121094 37.046875 64.507812 C 37.046875 49.890625 48.890625 38.046875 63.507812 38.046875 Z M 63.507812 38.046875 "/>
</g>
</svg>

<svg xmlns="http://www.w3.org/2000/svg" width="128pt" height="128pt" viewBox="0 0 128 128"><path d="M63.508 122.719c-32.254 0-58.215-25.961-58.215-58.211 0-32.254 25.96-58.215 58.215-58.215 32.25 0 58.21 25.96 58.21 58.215 0 32.25-25.96 58.21-58.21 58.21zm0-10.582c26.387 0 47.629-21.242 47.629-47.63 0-26.386-21.242-47.632-47.63-47.632-26.386 0-47.632 21.246-47.632 47.633 0 26.387 21.246 47.629 47.633 47.629zm0 0" fill="#424242"/><path d="M63.508 38.047c14.613 0 26.46 11.844 26.46 26.46 0 14.614-11.847 26.462-26.46 26.462-14.617 0-26.461-11.848-26.461-26.461 0-14.617 11.844-26.461 26.46-26.461zm0 0" fill="#ef5350"/></svg>
